icons/glyphs/glyph-diaspora.svg

<?xml version="1.0" encoding="UTF-8" standalone="no"?><svg height="16" viewBox="0 0 4.2333332 4.2333332" width="16" xmlns="http://www.w3.org/2000/svg"><sodipodi:namedview/><metadata><rdf:RDF><cc:Work><dc:format>image/svg+xml</dc:format><dc:type/><dc:title/></cc:Work></rdf:RDF></metadata><path d="m2.1166666 0c-1.1726333 0-2.1166666.9440333-2.1166666 2.1166666 0 1.1726332.9440333 2.1166666 2.1166666 2.1166666s2.1166666-.9440334 2.1166666-2.1166666c0-1.1726333-.9440333-2.1166666-2.1166666-2.1166666zm-.1982308.8640298h.3962549v.9789583l.8456331-.2749185.0855762-.027699.1223698.3770313-.9310026.3026171.5754687.7918896-.3208073.2329574-.575262-.7918897-.575262.7918897-.3208073-.2331641.575262-.7918896-.9307959-.3022037.1223698-.377238.9312093.3024104z" fill="#d0d0d0" stroke-opacity=".55" stroke-width=".740833"/></svg>

<?xml version="1.0" encoding="UTF-8" standalone="no"?>
<!-- Created with Inkscape (http://www.inkscape.org/) -->

<svg
   xmlns:dc="http://purl.org/dc/elements/1.1/"
   xmlns:cc="http://creativecommons.org/ns#"
   xmlns:rdf="http://www.w3.org/1999/02/22-rdf-syntax-ns#"
   xmlns:svg="http://www.w3.org/2000/svg"
   xmlns="http://www.w3.org/2000/svg"
   xmlns:sodipodi="http://sodipodi.sourceforge.net/DTD/sodipodi-0.dtd"
   xmlns:inkscape="http://www.inkscape.org/namespaces/inkscape"
   width="16"
   height="16"
   viewBox="0 0 4.2333332 4.2333332"
   version="1.1"
   id="svg8"
   inkscape:version="0.92+devel (4546dc857e, 2017-07-25, custom)"
   sodipodi:docname="glyph-diaspora.svg">
  <defs
     id="defs2">
    <linearGradient
       gradientTransform="matrix(-0.26458333,0,0,0.26458333,110.16437,-138.51132)"
       gradientUnits="userSpaceOnUse"
       x2="426.69501"
       y2="499.92099"
       y1="547.67499"
       id="a-6"
       x1="389.32001">
      <stop
         stop-color="#18222a"
         style="stop-color:#1e2b35;stop-opacity:1"
         id="stop7" />
      <stop
         stop-color="#566069"
         offset="1"
         style="stop-color:#6d7983;stop-opacity:1"
         id="stop9" />
    </linearGradient>
  </defs>
  <sodipodi:namedview
     id="base"
     pagecolor="#002466"
     bordercolor="#ffffff"
     borderopacity="0.38039216"
     inkscape:pageopacity="1"
     inkscape:pageshadow="2"
     inkscape:zoom="36.415999"
     inkscape:cx="10.094581"
     inkscape:cy="7.9162778"
     inkscape:document-units="px"
     inkscape:current-layer="svg8"
     inkscape:document-rotation="0"
     showgrid="false"
     inkscape:showpageshadow="false"
     borderlayer="true"
     inkscape:window-width="1920"
     inkscape:window-height="1051"
     inkscape:window-x="0"
     inkscape:window-y="0"
     inkscape:window-maximized="1"
     units="px" />
  <metadata
     id="metadata5">
    <rdf:RDF>
      <cc:Work
         rdf:about="">
        <dc:format>image/svg+xml</dc:format>
        <dc:type
           rdf:resource="http://purl.org/dc/dcmitype/StillImage" />
        <dc:title></dc:title>
      </cc:Work>
    </rdf:RDF>
  </metadata>
  <path
     style="fill:#d0d0d0;stroke-width:0.74083328;stroke-opacity:0.55"
     d="M 2.1166666,0 C 0.9440333,0 0,0.9440333 0,2.1166666 c 0,1.1726332 0.9440333,2.1166666 2.1166666,2.1166666 1.1726333,0 2.1166666,-0.9440334 2.1166666,-2.1166666 C 4.2333332,0.9440333 3.2892999,0 2.1166666,0 Z M 1.9184358,0.8640298 H 2.3146907 V 1.8429881 L 3.1603238,1.5680696 3.2459,1.5403706 3.3682698,1.9174019 2.4372672,2.220019 3.0127359,3.0119086 2.6919286,3.244866 2.1166666,2.4529763 1.5414046,3.244866 1.2205973,3.0117019 1.7958593,2.2198123 0.8650634,1.9176086 0.9874332,1.5403706 1.9186425,1.842781 Z"
     id="rect14"
     inkscape:connector-curvature="0"
     inkscape:label="#" />
</svg>
